X:184
T:Steirer
C:traditionell
R:Steirer
A:Bad Ischl, Salzkammergut
B:"Pfeifermusik aus Bad Ischl", Lois Blamberger, 3. Auflage, Bad Ischl 1990
S:im buch mit der Angabe: aus der Sammlung vom Blamberger Lois
N:im buch in G, nr. 20/3
Z:abc transcription Simon Wascher
M:3/4
L:1/8
K:G
V:1
Dz Ez Fz | Gz dB Gz | Fz dcFd | Gz dB Gz |\
Dz Ez Fz | Gz dB Gz | Fz dcFd | Gzz2 z2 :|
V:2
Fz Gz Az | Bz gd Bz | Az fdcf | Bz gd Bz |\
Fz Gz Az | Bz gd Bz | Az fdcf | Bzz2 z2 :|
